X:166
T:The Collier's Rant
Z:Jack Campin, http://www.campin.me.uk/
F:Jack Campin's Nine-Note Tunebook
% last edit 03-02-2013
S:Crawhall: A Beuk o' Newcassel Sangs
M:6/8
L:1/8
Q:3/8=64
K:DMin
A|Add  ccc|BBB  A2A  |Add  ccc |BAB   A2
A|Add  c2c|BBB  A2G  |F>ED F2G |A>^GA D3 |
  F>ED F2G|A>GF A<c-c|F>ED F2G |A>^GA D3 |
  F>ED F2G|A>GF A<c^c|d2A  B>AG|A>^GA D2|]

